X: 1
T: SHEPHERD'S HEY
S: BC (Rolf, 1951)
O: Bucknell
B: Morris Ring
Z: 1997, 2005 John Chambers <jc@trillian.mit.edu>
M: 2/2
L: 1/8
P: A.(AB)4
K: F
  A>Bc>A B2B2 | A>Bc>A G4 | A>Bc>A B2A>B | c2C2 F4 ||
  A2F2   B4   | A2F2   G4 | A2c2   B2d2  | c2C2 F4 ||
